; generated by Slic3r 1.3.0 on 2022-12-27 at 02:37:28

; external perimeters extrusion width = 0.55mm (7.28mm^3/s)
; perimeters extrusion width = 0.70mm (11.44mm^3/s)
; infill extrusion width = 0.63mm (13.45mm^3/s)
; solid infill extrusion width = 0.70mm (3.81mm^3/s)
; top infill extrusion width = 0.70mm (2.86mm^3/s)

M107
M104 S200 ; set temperature
G28 ; home all axes
G1 Z5 F5000 ; lift nozzle

; Filament gcode

M109 S200 ; set temperature and wait for it to be reached
G21 ; set units to millimeters
G90 ; use absolute coordinates
M82 ; use absolute distances for extrusion
G92 E0
G1 Z0.350 F7800.000
G1 E-2.00000 F2400.00000
G92 E0
G1 X89.609 Y107.753 F7800.000
G1 E2.00000 F2400.00000
G1 F1800
G1 X91.359 Y106.288 E2.06340
G1 X94.630 Y105.415 E2.15744
G1 X125.130 Y105.415 E3.00466
G1 X127.377 Y105.812 E3.06806
G1 X129.353 Y106.955 E3.13145
G1 X130.818 Y108.705 E3.19485
G1 X131.691 Y111.976 E3.28889
G1 X131.691 Y143.470 E4.16373
G1 X131.294 Y145.717 E4.22712
G1 X130.151 Y147.693 E4.29052
G1 X128.401 Y149.158 E4.35392
G1 X125.130 Y150.031 E4.44796
G1 X94.630 Y150.031 E5.29518
G1 X92.383 Y149.634 E5.35858
G1 X90.407 Y148.491 E5.42197
G1 X88.942 Y146.741 E5.48537
G1 X88.069 Y143.470 E5.57941
G1 X88.069 Y111.976 E6.45425
G1 X88.466 Y109.728 E6.51765
G1 X89.571 Y107.818 E6.57896
G1 E4.57896 F2400.00000
G92 E0
G1 X124.405 Y142.745 F7800.000
G1 E2.00000 F2400.00000
G1 F1800
G1 X95.355 Y142.745 E2.68308
G1 X95.355 Y112.701 E3.38955
G1 X124.405 Y112.701 E4.07263
G1 X124.405 Y142.670 E4.77733
G1 X124.532 Y143.229 F7800.000
G1 X124.855 Y143.195 F7800.000
G1 F1800
G1 X94.905 Y143.195 E5.48158
G1 X94.905 Y112.251 E6.20920
G1 X124.855 Y112.251 E6.91345
G1 X124.855 Y143.120 E7.63931
G1 X124.373 Y143.063 F7800.000
G1 Z0.650 F7800.000
G1 X124.405 Y142.745 F7800.000
G1 F2877.92
G1 X95.355 Y142.745 E8.23804
G1 X95.355 Y112.701 E8.85726
G1 X124.405 Y112.701 E9.45599
G1 X124.405 Y142.670 E10.07367
G1 X124.532 Y143.229 F7800.000
G1 X124.855 Y143.195 F7800.000
G1 F2877.92
G1 X94.905 Y143.195 E10.69095
G1 X94.905 Y112.251 E11.32872
G1 X124.855 Y112.251 E11.94600
G1 X124.855 Y143.120 E12.58222
G1 X124.373 Y143.063 F7800.000
G1 Z0.950 F7800.000
G1 X124.405 Y142.745 F7800.000
G1 F2877.92
G1 X95.355 Y142.745 E13.18095
G1 X95.355 Y112.701 E13.80017
G1 X124.405 Y112.701 E14.39891
G1 X124.405 Y142.670 E15.01658
G1 X124.532 Y143.229 F7800.000
G1 X124.855 Y143.195 F7800.000
G1 F2877.92
G1 X94.905 Y143.195 E15.63386
G1 X94.905 Y112.251 E16.27163
G1 X124.855 Y112.251 E16.88891
G1 X124.855 Y143.120 E17.52514
G1 X124.373 Y143.063 F7800.000
M106 S237.15
G1 Z1.250 F7800.000
G1 X124.405 Y142.745 F7800.000
G1 F3000
G1 X95.355 Y142.745 E18.12387
G1 X95.355 Y112.701 E18.74309
G1 X124.405 Y112.701 E19.34182
G1 X124.405 Y142.670 E19.95949
G1 X124.532 Y143.229 F7800.000
G1 X124.855 Y143.195 F7800.000
G1 F3000
G1 X94.905 Y143.195 E20.57677
G1 X94.905 Y112.251 E21.21454
G1 X124.855 Y112.251 E21.83182
G1 X124.855 Y143.120 E22.46805
G1 X124.373 Y143.063 F7800.000
G1 E20.46805 F2400.00000
G92 E0
G1 X48.887 Y64.199 F7800.000
G1 E2.00000 F2400.00000
M106 S255

G1 F3600
G1 X119.208 Y64.199 E3.95336
G1 X119.208 Y76.943 E4.30735
G1 X48.887 Y76.943 E6.26071
G1 X48.887 Y64.274 E6.61262
M106 S237.15

G1 E4.61262 F2400.00000
G92 E0
G1 X119.658 Y77.393 F7800.000
G1 E2.00000 F2400.00000
M106 S255

G1 F3600
G1 X48.437 Y77.393 E3.97836
G1 X48.437 Y63.749 E4.35735
G1 X119.658 Y63.749 E6.33571
G1 X119.658 Y77.318 E6.71262
M106 S237.15

M106 S234.6
G1 Z1.550 F7800.000
G1 E4.71262 F2400.00000
G92 E0
G1 X124.405 Y112.701 F7800.000
G1 E2.00000 F2400.00000
G1 F3000
G1 X124.405 Y142.745 E2.61922
G1 X95.355 Y142.745 E3.21795
G1 X95.355 Y112.701 E3.83717
G1 X124.330 Y112.701 E4.43436
G1 X124.887 Y112.569 F7800.000
G1 X124.855 Y112.251 F7800.000
G1 F3000
G1 X124.855 Y143.195 E5.07213
G1 X94.905 Y143.195 E5.68941
G1 X94.905 Y112.251 E6.32718
G1 X124.780 Y112.251 E6.94291
G1 X124.728 Y112.734 F7800.000
G1 E4.94291 F2400.00000
G92 E0
G1 X119.208 Y76.943 F7800.000
G1 E2.00000 F2400.00000
G1 F3000
G1 X48.887 Y76.943 E3.44934
G1 X48.887 Y64.199 E3.71199
G1 X119.208 Y64.199 E5.16133
G1 X119.208 Y76.868 E5.42243
G1 X119.432 Y77.390 F7800.000
G1 X119.658 Y77.393 F7800.000
G1 F3000
G1 X48.437 Y77.393 E6.89032
G1 X48.437 Y63.749 E7.17152
G1 X119.658 Y63.749 E8.63941
G1 X119.658 Y77.318 E8.91906
G1 X119.159 Y77.361 F7800.000
G1 Z1.850 F7800.000
G1 E6.91906 F2400.00000
G92 E0
G1 X124.405 Y112.701 F7800.000
G1 E2.00000 F2400.00000
G1 F3000
G1 X124.405 Y142.745 E2.61922
G1 X95.355 Y142.745 E3.21795
G1 X95.355 Y112.701 E3.83717
G1 X124.330 Y112.701 E4.43436
G1 X124.887 Y112.569 F7800.000
G1 X124.855 Y112.251 F7800.000
G1 F3000
G1 X124.855 Y143.195 E5.07213
G1 X94.905 Y143.195 E5.68941
G1 X94.905 Y112.251 E6.32718
G1 X124.780 Y112.251 E6.94291
G1 X124.728 Y112.734 F7800.000
G1 E4.94291 F2400.00000
G92 E0
G1 X119.208 Y76.943 F7800.000
G1 E2.00000 F2400.00000
G1 F3000
G1 X48.887 Y76.943 E3.44934
G1 X48.887 Y64.199 E3.71199
G1 X119.208 Y64.199 E5.16133
G1 X119.208 Y76.868 E5.42243
G1 X119.432 Y77.390 F7800.000
G1 X119.658 Y77.393 F7800.000
G1 F3000
G1 X48.437 Y77.393 E6.89032
G1 X48.437 Y63.749 E7.17152
G1 X119.658 Y63.749 E8.63941
G1 X119.658 Y77.318 E8.91906
G1 X119.159 Y77.361 F7800.000
M106 S221.85
G1 Z2.150 F7800.000
G1 E6.91906 F2400.00000
G92 E0
G1 X124.405 Y112.701 F7800.000
G1 E2.00000 F2400.00000
G1 F3000
G1 X124.405 Y142.745 E2.61922
G1 X95.355 Y142.745 E3.21795
G1 X95.355 Y112.701 E3.83717
G1 X124.330 Y112.701 E4.43436
G1 X124.887 Y112.569 F7800.000
G1 X124.855 Y112.251 F7800.000
G1 F3000
G1 X124.855 Y143.195 E5.07213
G1 X94.905 Y143.195 E5.68941
G1 X94.905 Y112.251 E6.32718
G1 X124.780 Y112.251 E6.94291
G1 X124.728 Y112.734 F7800.000
G1 E4.94291 F2400.00000
G92 E0
G1 X53.855 Y90.995 F7800.000
G1 E2.00000 F2400.00000
M106 S255

G1 F3600
G1 X109.405 Y90.995 E3.54306
G1 X109.405 Y100.545 E3.80833
G1 X53.855 Y100.545 E5.35139
G1 X53.855 Y91.070 E5.61458
M106 S221.85

G1 E3.61458 F2400.00000
G92 E0
G1 X109.855 Y100.995 F7800.000
G1 E2.00000 F2400.00000
M106 S255

G1 F3600
G1 X53.405 Y100.995 E3.56806
G1 X53.405 Y90.545 E3.85833
G1 X109.855 Y90.545 E5.42639
G1 X109.855 Y100.920 E5.71458
M106 S221.85

G1 E3.71458 F2400.00000
G92 E0
G1 X119.208 Y76.943 F7800.000
G1 E2.00000 F2400.00000
G1 F3000
G1 X48.887 Y76.943 E3.44934
G1 X48.887 Y64.199 E3.71199
G1 X119.208 Y64.199 E5.16133
G1 X119.208 Y76.868 E5.42243
G1 X119.432 Y77.390 F7800.000
G1 X119.658 Y77.393 F7800.000
G1 F3000
G1 X48.437 Y77.393 E6.89032
G1 X48.437 Y63.749 E7.17152
G1 X119.658 Y63.749 E8.63941
G1 X119.658 Y77.318 E8.91906
G1 X119.159 Y77.361 F7800.000
M106 S219.3
G1 Z2.450 F7800.000
G1 E6.91906 F2400.00000
G92 E0
G1 X124.405 Y112.701 F7800.000
G1 E2.00000 F2400.00000
G1 F3000
G1 X124.405 Y142.745 E2.61922
G1 X95.355 Y142.745 E3.21795
G1 X95.355 Y112.701 E3.83717
G1 X124.330 Y112.701 E4.43436
G1 X124.887 Y112.569 F7800.000
G1 X124.855 Y112.251 F7800.000
G1 F3000
G1 X124.855 Y143.195 E5.07213
G1 X94.905 Y143.195 E5.68941
G1 X94.905 Y112.251 E6.32718
G1 X124.780 Y112.251 E6.94291
G1 X124.728 Y112.734 F7800.000
G1 E4.94291 F2400.00000
G92 E0
G1 X109.405 Y100.545 F7800.000
G1 E2.00000 F2400.00000
G1 F3000
G1 X53.855 Y100.545 E3.14490
G1 X53.855 Y90.995 E3.34173
G1 X109.405 Y90.995 E4.48664
G1 X109.405 Y100.470 E4.68192
G1 X109.630 Y100.991 F7800.000
G1 X109.855 Y100.995 F7800.000
G1 F3000
G1 X53.405 Y100.995 E5.84537
G1 X53.405 Y90.545 E6.06075
G1 X109.855 Y90.545 E7.22420
G1 X109.855 Y100.920 E7.43804
G1 X109.356 Y100.965 F7800.000
G1 E5.43804 F2400.00000
G92 E0
G1 X119.208 Y76.943 F7800.000
G1 E2.00000 F2400.00000
G1 F3000
G1 X48.887 Y76.943 E3.44934
G1 X48.887 Y64.199 E3.71199
G1 X119.208 Y64.199 E5.16133
G1 X119.208 Y76.868 E5.42243
G1 X119.432 Y77.390 F7800.000
G1 X119.658 Y77.393 F7800.000
G1 F3000
G1 X48.437 Y77.393 E6.89032
G1 X48.437 Y63.749 E7.17152
G1 X119.658 Y63.749 E8.63941
G1 X119.658 Y77.318 E8.91906
G1 X119.159 Y77.361 F7800.000
G1 Z2.750 F7800.000
G1 E6.91906 F2400.00000
G92 E0
G1 X124.405 Y112.701 F7800.000
G1 E2.00000 F2400.00000
G1 F3000
G1 X124.405 Y142.745 E2.61922
G1 X95.355 Y142.745 E3.21795
G1 X95.355 Y112.701 E3.83717
G1 X124.330 Y112.701 E4.43436
G1 X124.887 Y112.569 F7800.000
G1 X124.855 Y112.251 F7800.000
G1 F3000
G1 X124.855 Y143.195 E5.07213
G1 X94.905 Y143.195 E5.68941
G1 X94.905 Y112.251 E6.32718
G1 X124.780 Y112.251 E6.94291
G1 X124.728 Y112.734 F7800.000
G1 E4.94291 F2400.00000
G92 E0
G1 X109.405 Y100.545 F7800.000
G1 E2.00000 F2400.00000
G1 F3000
G1 X53.855 Y100.545 E3.14490
G1 X53.855 Y90.995 E3.34173
G1 X109.405 Y90.995 E4.48664
G1 X109.405 Y100.470 E4.68192
G1 X109.630 Y100.991 F7800.000
G1 X109.855 Y100.995 F7800.000
G1 F3000
G1 X53.405 Y100.995 E5.84537
G1 X53.405 Y90.545 E6.06075
G1 X109.855 Y90.545 E7.22420
G1 X109.855 Y100.920 E7.43804
G1 X109.356 Y100.965 F7800.000
G1 E5.43804 F2400.00000
G92 E0
G1 X119.208 Y76.943 F7800.000
G1 E2.00000 F2400.00000
G1 F3000
G1 X48.887 Y76.943 E3.44934
G1 X48.887 Y64.199 E3.71199
G1 X119.208 Y64.199 E5.16133
G1 X119.208 Y76.868 E5.42243
G1 X119.432 Y77.390 F7800.000
G1 X119.658 Y77.393 F7800.000
G1 F3000
G1 X48.437 Y77.393 E6.89032
G1 X48.437 Y63.749 E7.17152
G1 X119.658 Y63.749 E8.63941
G1 X119.658 Y77.318 E8.91906
G1 X119.159 Y77.361 F7800.000
G1 Z3.050 F7800.000
G1 E6.91906 F2400.00000
G92 E0
G1 X124.405 Y112.701 F7800.000
G1 E2.00000 F2400.00000
G1 F3000
G1 X124.405 Y142.745 E2.61922
G1 X95.355 Y142.745 E3.21795
G1 X95.355 Y112.701 E3.83717
G1 X124.330 Y112.701 E4.43436
G1 X124.887 Y112.569 F7800.000
G1 X124.855 Y112.251 F7800.000
G1 F3000
G1 X124.855 Y143.195 E5.07213
G1 X94.905 Y143.195 E5.68941
G1 X94.905 Y112.251 E6.32718
G1 X124.780 Y112.251 E6.94291
G1 X124.728 Y112.734 F7800.000
G1 E4.94291 F2400.00000
G92 E0
G1 X109.405 Y100.545 F7800.000
G1 E2.00000 F2400.00000
G1 F3000
G1 X53.855 Y100.545 E3.14490
G1 X53.855 Y90.995 E3.34173
G1 X109.405 Y90.995 E4.48664
G1 X109.405 Y100.470 E4.68192
G1 X109.630 Y100.991 F7800.000
G1 X109.855 Y100.995 F7800.000
G1 F3000
G1 X53.405 Y100.995 E5.84537
G1 X53.405 Y90.545 E6.06075
G1 X109.855 Y90.545 E7.22420
G1 X109.855 Y100.920 E7.43804
G1 X109.356 Y100.965 F7800.000
G1 E5.43804 F2400.00000
G92 E0
G1 X119.208 Y76.943 F7800.000
G1 E2.00000 F2400.00000
G1 F3000
G1 X48.887 Y76.943 E3.44934
G1 X48.887 Y64.199 E3.71199
G1 X119.208 Y64.199 E5.16133
G1 X119.208 Y76.868 E5.42243
G1 X119.432 Y77.390 F7800.000
G1 X119.658 Y77.393 F7800.000
G1 F3000
G1 X48.437 Y77.393 E6.89032
G1 X48.437 Y63.749 E7.17152
G1 X119.658 Y63.749 E8.63941
G1 X119.658 Y77.318 E8.91906
G1 X119.159 Y77.361 F7800.000
G1 Z3.350 F7800.000
G1 E6.91906 F2400.00000
G92 E0
G1 X124.405 Y112.701 F7800.000
G1 E2.00000 F2400.00000
G1 F3000
G1 X124.405 Y142.745 E2.61922
G1 X95.355 Y142.745 E3.21795
G1 X95.355 Y112.701 E3.83717
G1 X124.330 Y112.701 E4.43436
G1 X124.887 Y112.569 F7800.000
G1 X124.855 Y112.251 F7800.000
G1 F3000
G1 X124.855 Y143.195 E5.07213
G1 X94.905 Y143.195 E5.68941
G1 X94.905 Y112.251 E6.32718
G1 X124.780 Y112.251 E6.94291
G1 X124.728 Y112.734 F7800.000
G1 E4.94291 F2400.00000
G92 E0
G1 X109.405 Y100.545 F7800.000
G1 E2.00000 F2400.00000
G1 F3000
G1 X53.855 Y100.545 E3.14490
G1 X53.855 Y90.995 E3.34173
G1 X109.405 Y90.995 E4.48664
G1 X109.405 Y100.470 E4.68192
G1 X109.630 Y100.991 F7800.000
G1 X109.855 Y100.995 F7800.000
G1 F3000
G1 X53.405 Y100.995 E5.84537
G1 X53.405 Y90.545 E6.06075
G1 X109.855 Y90.545 E7.22420
G1 X109.855 Y100.920 E7.43804
G1 X109.356 Y100.965 F7800.000
G1 E5.43804 F2400.00000
G92 E0
G1 X119.208 Y76.943 F7800.000
G1 E2.00000 F2400.00000
G1 F3000
G1 X48.887 Y76.943 E3.44934
G1 X48.887 Y64.199 E3.71199
G1 X119.208 Y64.199 E5.16133
G1 X119.208 Y76.868 E5.42243
G1 X119.432 Y77.390 F7800.000
G1 X119.658 Y77.393 F7800.000
G1 F3000
G1 X48.437 Y77.393 E6.89032
G1 X48.437 Y63.749 E7.17152
G1 X119.658 Y63.749 E8.63941
G1 X119.658 Y77.318 E8.91906
G1 X119.159 Y77.361 F7800.000
G1 Z3.650 F7800.000
G1 E6.91906 F2400.00000
G92 E0
G1 X124.405 Y112.701 F7800.000
G1 E2.00000 F2400.00000
G1 F3000
G1 X124.405 Y142.745 E2.61922
G1 X95.355 Y142.745 E3.21795
G1 X95.355 Y112.701 E3.83717
G1 X124.330 Y112.701 E4.43436
G1 X124.887 Y112.569 F7800.000
G1 X124.855 Y112.251 F7800.000
G1 F3000
G1 X124.855 Y143.195 E5.07213
G1 X94.905 Y143.195 E5.68941
G1 X94.905 Y112.251 E6.32718
G1 X124.780 Y112.251 E6.94291
G1 X124.728 Y112.734 F7800.000
G1 E4.94291 F2400.00000
G92 E0
G1 X109.405 Y100.545 F7800.000
G1 E2.00000 F2400.00000
G1 F3000
G1 X53.855 Y100.545 E3.14490
G1 X53.855 Y90.995 E3.34173
G1 X109.405 Y90.995 E4.48664
G1 X109.405 Y100.470 E4.68192
G1 X109.630 Y100.991 F7800.000
G1 X109.855 Y100.995 F7800.000
G1 F3000
G1 X53.405 Y100.995 E5.84537
G1 X53.405 Y90.545 E6.06075
G1 X109.855 Y90.545 E7.22420
G1 X109.855 Y100.920 E7.43804
G1 X109.356 Y100.965 F7800.000
G1 E5.43804 F2400.00000
G92 E0
G1 X119.208 Y76.943 F7800.000
G1 E2.00000 F2400.00000
G1 F3000
G1 X48.887 Y76.943 E3.44934
G1 X48.887 Y64.199 E3.71199
G1 X119.208 Y64.199 E5.16133
G1 X119.208 Y76.868 E5.42243
G1 X119.432 Y77.390 F7800.000
G1 X119.658 Y77.393 F7800.000
G1 F3000
G1 X48.437 Y77.393 E6.89032
G1 X48.437 Y63.749 E7.17152
G1 X119.658 Y63.749 E8.63941
G1 X119.658 Y77.318 E8.91906
G1 X119.159 Y77.361 F7800.000
G1 Z3.950 F7800.000
G1 E6.91906 F2400.00000
G92 E0
G1 X124.405 Y112.701 F7800.000
G1 E2.00000 F2400.00000
G1 F3000
G1 X124.405 Y142.745 E2.61922
G1 X95.355 Y142.745 E3.21795
G1 X95.355 Y112.701 E3.83717
G1 X124.330 Y112.701 E4.43436
G1 X124.887 Y112.569 F7800.000
G1 X124.855 Y112.251 F7800.000
G1 F3000
G1 X124.855 Y143.195 E5.07213
G1 X94.905 Y143.195 E5.68941
G1 X94.905 Y112.251 E6.32718
G1 X124.780 Y112.251 E6.94291
G1 X124.728 Y112.734 F7800.000
G1 E4.94291 F2400.00000
G92 E0
G1 X109.405 Y100.545 F7800.000
G1 E2.00000 F2400.00000
G1 F3000
G1 X53.855 Y100.545 E3.14490
G1 X53.855 Y90.995 E3.34173
G1 X109.405 Y90.995 E4.48664
G1 X109.405 Y100.470 E4.68192
G1 X109.630 Y100.991 F7800.000
G1 X109.855 Y100.995 F7800.000
G1 F3000
G1 X53.405 Y100.995 E5.84537
G1 X53.405 Y90.545 E6.06075
G1 X109.855 Y90.545 E7.22420
G1 X109.855 Y100.920 E7.43804
G1 X109.356 Y100.965 F7800.000
G1 E5.43804 F2400.00000
G92 E0
G1 X119.208 Y76.943 F7800.000
G1 E2.00000 F2400.00000
G1 F3000
G1 X48.887 Y76.943 E3.44934
G1 X48.887 Y64.199 E3.71199
G1 X119.208 Y64.199 E5.16133
G1 X119.208 Y76.868 E5.42243
G1 X119.432 Y77.390 F7800.000
G1 X119.658 Y77.393 F7800.000
G1 F3000
G1 X48.437 Y77.393 E6.89032
G1 X48.437 Y63.749 E7.17152
G1 X119.658 Y63.749 E8.63941
G1 X119.658 Y77.318 E8.91906
G1 X119.159 Y77.361 F7800.000
G1 Z4.250 F7800.000
G1 E6.91906 F2400.00000
G92 E0
G1 X124.405 Y112.701 F7800.000
G1 E2.00000 F2400.00000
G1 F3000
G1 X124.405 Y142.745 E2.61922
G1 X95.355 Y142.745 E3.21795
G1 X95.355 Y112.701 E3.83717
G1 X124.330 Y112.701 E4.43436
G1 X124.887 Y112.569 F7800.000
G1 X124.855 Y112.251 F7800.000
G1 F3000
G1 X124.855 Y143.195 E5.07213
G1 X94.905 Y143.195 E5.68941
G1 X94.905 Y112.251 E6.32718
G1 X124.780 Y112.251 E6.94291
G1 X124.728 Y112.734 F7800.000
G1 E4.94291 F2400.00000
G92 E0
G1 X109.405 Y100.545 F7800.000
G1 E2.00000 F2400.00000
G1 F3000
G1 X53.855 Y100.545 E3.14490
G1 X53.855 Y90.995 E3.34173
G1 X109.405 Y90.995 E4.48664
G1 X109.405 Y100.470 E4.68192
G1 X109.630 Y100.991 F7800.000
G1 X109.855 Y100.995 F7800.000
G1 F3000
G1 X53.405 Y100.995 E5.84537
G1 X53.405 Y90.545 E6.06075
G1 X109.855 Y90.545 E7.22420
G1 X109.855 Y100.920 E7.43804
G1 X109.356 Y100.965 F7800.000
G1 E5.43804 F2400.00000
G92 E0
G1 X119.208 Y76.943 F7800.000
G1 E2.00000 F2400.00000
G1 F3000
