; generated by Slic3r 1.3.0 on 2022-12-27 at 02:38:00

; external perimeters extrusion width = 0.55mm (7.28mm^3/s)
; perimeters extrusion width = 0.70mm (11.44mm^3/s)
; infill extrusion width = 0.63mm (13.45mm^3/s)
; solid infill extrusion width = 0.70mm (3.81mm^3/s)
; top infill extrusion width = 0.70mm (2.86mm^3/s)

M107
M104 S200 ; set temperature
G28 ; home all axes
G1 Z5 F5000 ; lift nozzle

; Filament gcode

M109 S200 ; set temperature and wait for it to be reached
G21 ; set units to millimeters
G90 ; use absolute coordinates
M82 ; use absolute distances for extrusion
G92 E0
G1 Z0.350 F7800.000
G1 E-2.00000 F2400.00000
G92 E0
G1 X30.045 Y45.072 F7800.000
G1 E2.00000 F2400.00000
G1 F1800
G1 X30.547 Y44.782 E2.01612
G1 X31.946 Y44.179 E2.05844
G1 X32.502 Y44.012 E2.07456
G1 X34.002 Y43.748 E2.11688
G1 X34.979 Y43.703 E2.14404
G1 X165.159 Y44.013 E5.76015
G1 X166.282 Y44.113 E5.79148
G1 X166.854 Y44.214 E5.80761
G1 X168.313 Y44.651 E5.84992
G1 X168.846 Y44.881 E5.86605
G1 X170.166 Y45.642 E5.90836
G1 X170.631 Y45.989 E5.92449
G1 X171.739 Y47.034 E5.96681
G1 X172.113 Y47.479 E5.98293
G1 X172.972 Y48.797 E6.02663
G1 X173.210 Y49.270 E6.04136
G1 X173.731 Y50.702 E6.08367
G1 X173.865 Y51.267 E6.09980
G1 X174.042 Y52.780 E6.14211
G1 X173.174 Y146.621 E8.74894
G1 X172.997 Y148.073 E8.78956
G1 X172.863 Y148.638 E8.80569
G1 X172.342 Y150.070 E8.84801
G1 X172.082 Y150.588 E8.86413
G1 X171.245 Y151.860 E8.90642
G1 X170.872 Y152.306 E8.92257
G1 X169.764 Y153.351 E8.96488
G1 X169.298 Y153.698 E8.98101
G1 X167.979 Y154.459 E9.02332
G1 X167.446 Y154.689 E9.03945
G1 X165.987 Y155.126 E9.08175
G1 X165.415 Y155.227 E9.09789
G1 X164.326 Y155.327 E9.12825
G1 X35.326 Y156.327 E12.71169
G1 X34.314 Y156.282 E12.73982
G1 X32.814 Y156.017 E12.78214
G1 X32.258 Y155.851 E12.79826
G1 X30.816 Y155.222 E12.84197
G1 X30.357 Y154.957 E12.85670
G1 X29.135 Y154.048 E12.89901
G1 X28.712 Y153.649 E12.91513
G1 X27.733 Y152.482 E12.95744
G1 X27.414 Y151.997 E12.97357
G1 X26.731 Y150.636 E13.01589
G1 X26.532 Y150.091 E13.03201
G1 X26.181 Y148.608 E13.07433
G1 X26.113 Y148.032 E13.09045
G1 X26.069 Y147.292 E13.11105
G1 X25.757 Y52.781 E15.73635
G1 X25.801 Y51.998 E15.75814
G1 X25.869 Y51.422 E15.77426
G1 X26.220 Y49.939 E15.81658
G1 X26.419 Y49.394 E15.83271
G1 X27.102 Y48.032 E15.87502
G1 X27.421 Y47.547 E15.89115
G1 X28.401 Y46.380 E15.93346
G1 X28.823 Y45.982 E15.94959
G1 X29.985 Y45.117 E15.98982
G1 E13.98982 F2400.00000
G92 E0
G1 X35.456 Y146.181 F7800.000
G1 E2.00000 F2400.00000
G1 F1800
G1 X35.698 Y146.285 E2.00733
G1 X35.910 Y146.443 E2.01466
G1 X36.080 Y146.645 E2.02200
G1 X36.198 Y146.881 E2.02933
G1 X36.259 Y147.138 E2.03666
G1 X36.259 Y147.402 E2.04399
G1 X36.198 Y147.659 E2.05133
G1 X36.080 Y147.895 E2.05866
G1 X35.910 Y148.097 E2.06599
G1 X35.698 Y148.255 E2.07332
G1 X35.456 Y148.359 E2.08065
G1 X35.196 Y148.405 E2.08799
G1 X34.933 Y148.390 E2.09532
G1 X34.680 Y148.314 E2.10265
G1 X34.462 Y148.188 E2.10963
G1 X34.238 Y147.969 E2.11833
G1 X34.114 Y147.780 E2.12461
G1 X34.024 Y147.532 E2.13194
G1 X33.993 Y147.270 E2.13927
G1 X34.024 Y147.008 E2.14661
G1 X34.114 Y146.760 E2.15394
G1 X34.259 Y146.539 E2.16127
G1 X34.451 Y146.358 E2.16860
G1 X34.680 Y146.226 E2.17594
G1 X34.920 Y146.154 E2.18291
G1 X35.234 Y146.142 E2.19162
G1 X35.382 Y146.168 E2.19581
G1 X35.553 Y145.628 F7800.000
G1 F1800
G1 X35.618 Y145.640 E2.19763
G1 X35.981 Y145.796 E2.20861
G1 X36.298 Y146.032 E2.21958
G1 X36.552 Y146.335 E2.23056
G1 X36.729 Y146.688 E2.24153
G1 X36.820 Y147.072 E2.25251
G1 X36.820 Y147.468 E2.26348
G1 X36.729 Y147.852 E2.27446
G1 X36.552 Y148.205 E2.28543
G1 X36.298 Y148.508 E2.29641
G1 X35.981 Y148.744 E2.30738
G1 X35.618 Y148.900 E2.31836
G1 X35.229 Y148.969 E2.32933
G1 X34.835 Y148.946 E2.34031
G1 X34.456 Y148.832 E2.35128
G1 X34.120 Y148.639 E2.36205
G1 X33.803 Y148.328 E2.37440
G1 X33.609 Y148.034 E2.38417
G1 X33.474 Y147.662 E2.39515
G1 X33.428 Y147.270 E2.40612
G1 X33.474 Y146.878 E2.41710
G1 X33.609 Y146.506 E2.42807
G1 X33.826 Y146.176 E2.43905
G1 X34.114 Y145.905 E2.45002
G1 X34.456 Y145.708 E2.46100
G1 X34.827 Y145.596 E2.47177
G1 X35.272 Y145.579 E2.48412
G1 X35.480 Y145.615 E2.48998
G1 X35.643 Y145.118 F7800.000
G1 F1800
G1 X35.768 Y145.140 E2.49295
G1 X36.242 Y145.345 E2.50509
G1 X36.656 Y145.653 E2.51722
G1 X36.987 Y146.048 E2.52936
G1 X37.219 Y146.510 E2.54150
G1 X37.338 Y147.012 E2.55364
G1 X37.338 Y147.528 E2.56577
G1 X37.219 Y148.030 E2.57791
G1 X36.987 Y148.492 E2.59005
G1 X36.656 Y148.887 E2.60219
G1 X36.242 Y149.195 E2.61432
G1 X35.768 Y149.400 E2.62646
G1 X35.259 Y149.489 E2.63860
G1 X34.744 Y149.459 E2.65074
G1 X34.249 Y149.311 E2.66287
G1 X33.805 Y149.055 E2.67495
G1 X33.400 Y148.659 E2.68825
G1 X33.143 Y148.268 E2.69925
G1 X32.967 Y147.783 E2.71139
G1 X32.907 Y147.270 E2.72353
G1 X32.967 Y146.757 E2.73567
G1 X33.143 Y146.272 E2.74781
G1 X33.427 Y145.841 E2.75994
G1 X33.802 Y145.487 E2.77208
G1 X34.249 Y145.229 E2.78422
G1 X34.741 Y145.081 E2.79629
G1 X35.307 Y145.059 E2.80960
G1 X35.570 Y145.105 E2.81587
G1 X35.692 Y145.235 F7800.000
G1 X34.912 Y146.682 F7800.000
G1 F1800
G1 X34.473 Y147.121 E2.83342
G1 X34.401 Y147.231 E2.83716
G1 X34.355 Y147.356 E2.84091
G1 X34.340 Y147.488 E2.84467
G1 X34.355 Y147.620 E2.84842
G1 X34.401 Y147.745 E2.85217
G1 X34.515 Y147.887 E2.85732
G1 X35.752 Y146.649 E2.90676
G1 X35.826 Y146.737 E2.91002
G1 X35.886 Y146.856 E2.91377
G1 X35.916 Y146.985 E2.91752
G1 X35.916 Y147.118 E2.92128
G1 X35.886 Y147.247 E2.92503
G1 X35.826 Y147.366 E2.92878
G1 X35.304 Y147.905 E2.94998
G1 E0.94998 F2400.00000
G92 E0
G1 X34.884 Y53.895 F7800.000
G1 E2.00000 F2400.00000
G1 F1800
G1 X34.621 Y53.879 E2.00733
G1 X34.368 Y53.804 E2.01466
G1 X34.139 Y53.672 E2.02200
G1 X33.947 Y53.490 E2.02933
G1 X33.802 Y53.270 E2.03666
G1 X33.712 Y53.022 E2.04399
G1 X33.681 Y52.760 E2.05133
G1 X33.712 Y52.498 E2.05866
G1 X33.802 Y52.249 E2.06599
G1 X33.947 Y52.029 E2.07332
G1 X34.139 Y51.848 E2.08065
G1 X34.368 Y51.716 E2.08799
G1 X34.608 Y51.644 E2.09496
G1 X34.922 Y51.631 E2.10367
G1 X35.144 Y51.671 E2.10995
G1 X35.387 Y51.775 E2.11728
G1 X35.598 Y51.933 E2.12461
G1 X35.768 Y52.135 E2.13194
G1 X35.886 Y52.371 E2.13927
G1 X35.947 Y52.628 E2.14661
G1 X35.947 Y52.892 E2.15394
G1 X35.886 Y53.149 E2.16127
G1 X35.768 Y53.384 E2.16860
G1 X35.598 Y53.587 E2.17594
G1 X35.387 Y53.744 E2.18327
G1 X35.144 Y53.849 E2.19060
G1 X34.958 Y53.882 E2.19585
G1 X34.982 Y54.447 F7800.000
G1 F1800
G1 X34.917 Y54.458 E2.19767
G1 X34.523 Y54.436 E2.20865
G1 X34.144 Y54.322 E2.21962
G1 X33.802 Y54.125 E2.23060
G1 X33.515 Y53.854 E2.24157
G1 X33.297 Y53.523 E2.25255
G1 X33.162 Y53.152 E2.26352
G1 X33.116 Y52.760 E2.27450
G1 X33.162 Y52.367 E2.28547
G1 X33.297 Y51.996 E2.29645
G1 X33.515 Y51.666 E2.30742
G1 X33.802 Y51.395 E2.31840
G1 X34.144 Y51.197 E2.32937
G1 X34.515 Y51.086 E2.34014
G1 X34.960 Y51.068 E2.35249
G1 X35.306 Y51.130 E2.36226
G1 X35.669 Y51.286 E2.37323
G1 X35.986 Y51.522 E2.38421
G1 X36.240 Y51.825 E2.39518
G1 X36.417 Y52.178 E2.40616
G1 X36.508 Y52.562 E2.41714
G1 X36.508 Y52.957 E2.42811
G1 X36.417 Y53.342 E2.43909
G1 X36.240 Y53.695 E2.45006
G1 X35.986 Y53.997 E2.46104
G1 X35.669 Y54.233 E2.47201
G1 X35.306 Y54.390 E2.48299
G1 X35.055 Y54.434 E2.49006
G1 X35.072 Y54.957 F7800.000
G1 F1800
G1 X34.947 Y54.979 E2.49302
G1 X34.432 Y54.949 E2.50516
G1 X33.938 Y54.801 E2.51730
G1 X33.491 Y54.543 E2.52943
G1 X33.115 Y54.189 E2.54157
G1 X32.831 Y53.757 E2.55371
G1 X32.655 Y53.272 E2.56585
G1 X32.595 Y52.760 E2.57798
G1 X32.655 Y52.247 E2.59012
G1 X32.831 Y51.762 E2.60226
G1 X33.115 Y51.331 E2.61440
G1 X33.491 Y50.976 E2.62653
G1 X33.938 Y50.718 E2.63867
G1 X34.430 Y50.571 E2.65075
G1 X34.995 Y50.549 E2.66405
G1 X35.456 Y50.630 E2.67505
G1 X35.930 Y50.834 E2.68719
G1 X36.344 Y51.143 E2.69933
G1 X36.675 Y51.538 E2.71147
G1 X36.907 Y51.999 E2.72360
G1 X37.026 Y52.502 E2.73574
G1 X37.026 Y53.018 E2.74788
G1 X36.907 Y53.520 E2.76002
G1 X36.675 Y53.981 E2.77215
G1 X36.344 Y54.377 E2.78429
G1 X35.930 Y54.685 E2.79643
G1 X35.456 Y54.889 E2.80857
G1 X35.145 Y54.944 E2.81597
G1 X34.986 Y54.864 F7800.000
G1 X34.992 Y53.394 F7800.000
G1 F1800
G1 X35.514 Y52.856 E2.83717
G1 X35.574 Y52.737 E2.84093
G1 X35.604 Y52.608 E2.84468
G1 X35.604 Y52.475 E2.84843
G1 X35.574 Y52.346 E2.85219
G1 X35.514 Y52.227 E2.85594
G1 X35.440 Y52.139 E2.85920
G1 X34.199 Y53.380 E2.90881
G1 X34.089 Y53.235 E2.91398
G1 X34.043 Y53.110 E2.91773
G1 X34.028 Y52.978 E2.92148
G1 X34.043 Y52.846 E2.92524
G1 X34.089 Y52.721 E2.92899
G1 X34.161 Y52.611 E2.93273
G1 X34.601 Y52.171 E2.95028
G1 E0.95028 F2400.00000
G92 E0
G1 X163.861 Y53.070 F7800.000
G1 E2.00000 F2400.00000
G1 F1800
G1 X163.890 Y52.821 E2.00698
G1 X164.003 Y52.528 E2.01568
G1 X164.127 Y52.339 E2.02196
G1 X164.319 Y52.158 E2.02929
G1 X164.547 Y52.026 E2.03662
G1 X164.788 Y51.954 E2.04360
G1 X165.101 Y51.942 E2.05231
G1 X165.324 Y51.981 E2.05858
G1 X165.566 Y52.085 E2.06592
G1 X165.778 Y52.243 E2.07325
G1 X165.948 Y52.445 E2.08058
G1 X166.066 Y52.681 E2.08791
G1 X166.127 Y52.938 E2.09525
G1 X166.127 Y53.202 E2.10258
G1 X166.066 Y53.459 E2.10991
G1 X165.953 Y53.683 E2.11689
G1 X165.747 Y53.920 E2.12559
G1 X165.566 Y54.055 E2.13187
G1 X165.324 Y54.159 E2.13920
G1 X165.064 Y54.205 E2.14653
G1 X164.800 Y54.190 E2.15387
G1 X164.547 Y54.114 E2.16120
G1 X164.319 Y53.982 E2.16853
G1 X164.127 Y53.801 E2.17586
G1 X163.982 Y53.580 E2.18320
G1 X163.892 Y53.332 E2.19053
G1 X163.870 Y53.145 E2.19578
G1 X163.304 Y53.135 F7800.000
G1 F1800
G1 X163.296 Y53.070 E2.19760
G1 X163.341 Y52.685 E2.20836
G1 X163.501 Y52.270 E2.22071
G1 X163.694 Y51.976 E2.23049
G1 X163.982 Y51.705 E2.24146
G1 X164.324 Y51.508 E2.25244
G1 X164.695 Y51.396 E2.26320
G1 X165.139 Y51.379 E2.27555
G1 X165.486 Y51.440 E2.28533
G1 X165.849 Y51.596 E2.29630
G1 X166.166 Y51.832 E2.30728
G1 X166.419 Y52.135 E2.31825
G1 X166.597 Y52.488 E2.32923
G1 X166.688 Y52.872 E2.34020
G1 X166.688 Y53.268 E2.35118
G1 X166.597 Y53.652 E2.36215
G1 X166.423 Y53.998 E2.37292
G1 X166.131 Y54.334 E2.38527
G1 X165.849 Y54.544 E2.39504
G1 X165.486 Y54.700 E2.40602
G1 X165.097 Y54.769 E2.41699
G1 X164.702 Y54.746 E2.42797
G1 X164.324 Y54.633 E2.43894
G1 X163.982 Y54.435 E2.44992
G1 X163.694 Y54.164 E2.46089
G1 X163.477 Y53.834 E2.47187
G1 X163.342 Y53.462 E2.48284
G1 X163.312 Y53.210 E2.48991
G1 X162.789 Y53.195 F7800.000
G1 F1800
G1 X162.775 Y53.070 E2.49288
G1 X162.834 Y52.560 E2.50495
G1 X163.038 Y52.032 E2.51825
G1 X163.295 Y51.641 E2.52926
G1 X163.670 Y51.287 E2.54140
G1 X164.117 Y51.029 E2.55353
G1 X164.609 Y50.881 E2.56561
G1 X165.175 Y50.859 E2.57891
G1 X165.635 Y50.940 E2.58992
G1 X166.109 Y51.145 E2.60205
G1 X166.523 Y51.453 E2.61419
G1 X166.855 Y51.848 E2.62633
G1 X167.087 Y52.310 E2.63847
G1 X167.206 Y52.812 E2.65060
G1 X167.206 Y53.328 E2.66274
G1 X167.087 Y53.830 E2.67488
G1 X166.856 Y54.289 E2.68696
G1 X166.485 Y54.716 E2.70026
G1 X166.109 Y54.995 E2.71126
G1 X165.635 Y55.200 E2.72340
G1 X165.127 Y55.289 E2.73554
G1 X164.612 Y55.259 E2.74767
G1 X164.117 Y55.111 E2.75981
G1 X163.670 Y54.853 E2.77195
G1 X163.295 Y54.499 E2.78409
G1 X163.011 Y54.068 E2.79622
G1 X162.835 Y53.583 E2.80836
G1 X162.798 Y53.270 E2.81577
G1 X162.887 Y53.116 F7800.000
G1 E0.81577 F2400.00000
G92 E0
G1 X164.780 Y52.482 F7800.000
G1 E2.00000 F2400.00000
G1 F1800
G1 X164.341 Y52.921 E2.01748
G1 X164.286 Y53.004 E2.02028
G1 X164.221 Y53.174 E2.02541
G1 X164.208 Y53.288 E2.02864
G1 X164.223 Y53.420 E2.03238
G1 X164.268 Y53.545 E2.03611
G1 X164.377 Y53.689 E2.04119
G1 X165.618 Y52.447 E2.09061
G1 X165.694 Y52.537 E2.09392
G1 X165.754 Y52.656 E2.09765
G1 X165.784 Y52.785 E2.10139
G1 X165.784 Y52.918 E2.10513
G1 X165.754 Y53.047 E2.10887
G1 X165.702 Y53.150 E2.11210
G1 X165.145 Y53.724 E2.13460
G1 E0.13460 F2400.00000
G92 E0
G1 X164.234 Y145.142 F7800.000
G1 E2.00000 F2400.00000
G1 F1800
G1 X164.456 Y145.181 E2.00628
G1 X164.698 Y145.285 E2.01361
G1 X164.910 Y145.443 E2.02094
G1 X165.080 Y145.645 E2.02827
G1 X165.198 Y145.881 E2.03560
G1 X165.259 Y146.138 E2.04294
G1 X165.259 Y146.402 E2.05027
G1 X165.198 Y146.659 E2.05760
G1 X165.086 Y146.883 E2.06458
G1 X164.880 Y147.120 E2.07329
G1 X164.698 Y147.255 E2.07956
G1 X164.456 Y147.359 E2.08689
G1 X164.196 Y147.405 E2.09422
G1 X163.933 Y147.390 E2.10156
G1 X163.680 Y147.314 E2.10889
G1 X163.462 Y147.188 E2.11587
G1 X163.238 Y146.969 E2.12457
G1 X163.114 Y146.780 E2.13085
G1 X163.024 Y146.532 E2.13818
G1 X162.993 Y146.270 E2.14551
G1 X163.024 Y146.008 E2.15285
G1 X163.114 Y145.760 E2.16018
G1 X163.259 Y145.539 E2.16751
G1 X163.451 Y145.358 E2.17484
G1 X163.680 Y145.226 E2.18217
G1 X163.920 Y145.154 E2.18915
G1 X164.159 Y145.145 E2.19578
G1 X164.331 Y144.589 F7800.000
G1 F1800
G1 X164.618 Y144.640 E2.20387
G1 X164.981 Y144.796 E2.21485
G1 X165.298 Y145.032 E2.22582
G1 X165.552 Y145.335 E2.23680
G1 X165.729 Y145.688 E2.24777
G1 X165.820 Y146.072 E2.25875
G1 X165.820 Y146.468 E2.26972
G1 X165.729 Y146.852 E2.28070
G1 X165.555 Y147.198 E2.29146
G1 X165.263 Y147.534 E2.30382
G1 X164.981 Y147.744 E2.31359
G1 X164.618 Y147.900 E2.32456
G1 X164.229 Y147.969 E2.33554
G1 X163.835 Y147.946 E2.34651
G1 X163.456 Y147.832 E2.35749
G1 X163.120 Y147.639 E2.36825
G1 X162.803 Y147.328 E2.38060
G1 X162.609 Y147.034 E2.39038
G1 X162.474 Y146.662 E2.40135
G1 X162.428 Y146.270 E2.41233
G1 X162.474 Y145.878 E2.42330
G1 X162.609 Y145.506 E2.43428
G1 X162.826 Y145.176 E2.44525
G1 X163.114 Y144.905 E2.45623
G1 X163.456 Y144.708 E2.46720
G1 X163.827 Y144.596 E2.47797
G1 X164.257 Y144.579 E2.48991
G1 X164.421 Y144.079 F7800.000
G1 F1800
G1 X164.768 Y144.140 E2.49819
G1 X165.242 Y144.345 E2.51033
G1 X165.656 Y144.653 E2.52246
G1 X165.987 Y145.048 E2.53460
G1 X166.219 Y145.510 E2.54674
G1 X166.338 Y146.012 E2.55888
G1 X166.338 Y146.528 E2.57101
G1 X166.219 Y147.030 E2.58315
G1 X165.989 Y147.489 E2.59523
G1 X165.617 Y147.916 E2.60853
G1 X165.242 Y148.195 E2.61953
G1 X164.768 Y148.400 E2.63167
G1 X164.259 Y148.489 E2.64381
G1 X163.744 Y148.459 E2.65595
G1 X163.249 Y148.311 E2.66808
G1 X162.805 Y148.055 E2.68016
G1 X162.400 Y147.659 E2.69346
G1 X162.143 Y147.268 E2.70446
G1 X161.967 Y146.783 E2.71660
G1 X161.907 Y146.270 E2.72874
G1 X161.967 Y145.757 E2.74088
G1 X162.143 Y145.272 E2.75302
G1 X162.427 Y144.841 E2.76515
G1 X162.802 Y144.487 E2.77729
G1 X163.249 Y144.229 E2.78943
G1 X163.741 Y144.081 E2.80150
G1 X164.347 Y144.066 E2.81575
G1 X164.561 Y144.402 F7800.000
G1 X163.912 Y145.682 F7800.000
G1 F1800
G1 X163.473 Y146.121 E2.83323
G1 X163.401 Y146.231 E2.83695
G1 X163.355 Y146.356 E2.84069
G1 X163.340 Y146.488 E2.84443
G1 X163.355 Y146.620 E2.84816
G1 X163.401 Y146.745 E2.85190
G1 X163.513 Y146.885 E2.85695
G1 X164.751 Y145.647 E2.90620
G1 X164.826 Y145.737 E2.90951
G1 X164.886 Y145.856 E2.91325
G1 X164.916 Y145.985 E2.91699
G1 X164.916 Y146.118 E2.92072
G1 X164.886 Y146.247 E2.92446
G1 X164.834 Y146.350 E2.92769
G1 X164.278 Y146.924 E2.95020
G1 Z0.650 F7800.000
G1 E0.95020 F2400.00000
G92 E0
G1 X36.087 Y147.618 F7800.000
G1 E2.00000 F2400.00000
G1 F900
G1 X35.981 Y147.830 E2.00638
G1 X35.829 Y148.011 E2.01276
G1 X35.639 Y148.152 E2.01914
G1 X35.422 Y148.246 E2.02552
G1 X35.189 Y148.287 E2.03190
G1 X34.953 Y148.273 E2.03829
G1 X34.726 Y148.205 E2.04467
G1 X34.522 Y148.087 E2.05105
G1 X34.350 Y147.925 E2.05743
G1 X34.220 Y147.727 E2.06381
G1 X34.139 Y147.505 E2.07019
G1 X34.111 Y147.270 E2.07657
G1 X34.139 Y147.035 E2.08295
G1 X34.220 Y146.813 E2.08933
G1 X34.350 Y146.615 E2.09571
G1 X34.522 Y146.453 E2.10210
G1 X34.726 Y146.335 E2.10848
G1 X34.953 Y146.267 E2.11486
G1 X35.189 Y146.253 E2.12124
G1 X35.422 Y146.294 E2.12762
